X: 5273
T: Brook, The
R: reel
M: 4/4
K: Gmajor
ge|dedB ~G3B|d2BG FGAB|dedB GBAG|FEDE FGAB|
dedB G3B|d2BG FGAB|dedB GBAG|FEDE FGAB||
GE~E2 B,E~E2|GE~E2 edBA|GE~E2 B,E~E2|FEDE FGAB|
GE~E2 B,E~E2|GE~E2 edBA|GEEF G2GA|BedB AGEF||
G3A G3E|DGGE FGAB|~G2eG dG~G2|FEDE FGAB|
~G3B dG~G2|DGGE FGAB|~G2eG dGGE|FEDE FGAB||

